X: 63
T: POLKA: Farewell to Whiskey
C: C: Niel Gow; S: Various
C: Set Leaders: Mars, Anton
Z: [Unedited]; ceolachan at The Session
N: https://thesession.org/members/26966/sets/94260
R: Polka
M: 2/4
L: 1/8
Q: 1/4=140
K: Gmaj
|:DG B/A/G/A/|BE E/F/G/E/|DG B/A/G/B/|dB Bd|
e/f/g/e/ dB|c/B/A/G/ AB|DG B/A/G/A/|1 BG G>E:|2 BG G>B||
|:dB gd|e/f/g/e/ dB/c/|dB gd|ef g2|
e/f/g/e/ dB|c/B/A/G/ AB|DG B/A/G/A/|1 BG G>B:|2 BG G>E||

